X:161
T:Trip to Farleigh. Ru1.161, A
%%VWML:RutherfordVol1-2248-p61-0p61
Z:Transcription by Village Music Project, Steve Mansfield July 2015
F:http://www.village-music-project.org.uk/
F:http://www.vwml.org/record/RutherfordVol1/2248/p61
L:1/8
W:The 1st Cu. Casts off and Leads thro the 3d
W:Cu .| the 2d Cu. does the same :| The 1st Man
W:sett to the 2d Wo. the 1st Wo. Does the
W:Same .| foot it to your Partner and Right
W:hand and Left :|
Q:3/8=90
K:D
|:a2f2 gefd | Adcd e/d/c/d/ eA | a2f2 gefd | Ad c/d/e/c/ d2D2 :|
|: AdAG FdAG | FA de f2e2 | AdAG FA dg | (f/g/)a Ac d2D2 :|]
T:Amorous Goddess. Ru1.162
B:Rutherford's Country Dances Vol 1, 1756
Z:village music project, Steve Mansfield July 2015
M:C|
L:1/8
W:Hands a cross with the 2d Cu. and Cast off .|
W:the same with the 3d Cu. :| Lead up to the Top
W:foot it and Cast off Lead thro the 3d Cu. and
W:turn your Partner .|. foot it Corners and
W:turn foot it the other Corners and turn your
W:Partner :|
Q:3/8=90
K:D
|:f2(e/f/)g faag | fedc dA TA2 | f2(e/f/)g faag | f(edc) d4 ||
f2(f/e/d) eaac | dfed cAA2 | aeec fBBd | c2B2 A4 |
f2(e/f/g) faag | fedc dAA2 | f2(e/f/g) faag | fedc d4 |]
